__todo__/typescript-icon-round.svg

<svg height="256" preserveAspectRatio="xMidYMid" viewBox="0 0 256 256" width="256" xmlns="http://www.w3.org/2000/svg"><path d="m128 0c70.692448 0 128 57.307552 128 128s-57.307552 128-128 128-128-57.307552-128-128 57.307552-128 128-128z" fill="#3178c6"/><path d="m140.463 160.712v25.03c4.017 2.086 8.767 3.651 14.25 4.694 5.484 1.043 11.264 1.564 17.34 1.564 5.921 0 11.547-.574 16.876-1.721s10.002-3.037 14.018-5.671c4.016-2.633 7.196-6.075 9.539-10.325s3.514-9.503 3.514-15.761c0-4.537-.669-8.513-2.008-11.929-1.339-3.415-3.27-6.453-5.793-9.112-2.523-2.66-5.548-5.045-9.075-7.157s-7.505-4.107-11.933-5.984c-3.244-1.356-6.153-2.673-8.728-3.95-2.574-1.278-4.762-2.581-6.565-3.911-1.802-1.33-3.192-2.738-4.17-4.224-.979-1.486-1.468-3.168-1.468-5.045 0-1.721.438-3.272 1.313-4.654.876-1.382 2.111-2.5686 3.707-3.5594 1.597-.9908 3.553-1.7599 5.87-2.3075 2.317-.5475 4.892-.8213 7.724-.8213 2.06 0 4.235.1565 6.526.4694 2.292.3128 4.596.7952 6.913 1.447 2.317.6519 4.57 1.4732 6.758 2.4638 2.188.991 4.209 2.138 6.063 3.442v-23.3879c-3.759-1.4601-7.865-2.5422-12.319-3.2461-4.454-.704-9.564-1.056-15.331-1.056-5.87 0-11.431.6388-16.683 1.9164s-9.873 3.2722-13.864 5.9838-7.144 6.1663-9.461 10.3641-3.476 9.2167-3.476 15.0577c0 7.457 2.124 13.818 6.372 19.085s10.697 9.726 19.348 13.376c3.398 1.408 6.565 2.79 9.5 4.146 2.934 1.355 5.47 2.763 7.607 4.223 2.137 1.461 3.823 3.051 5.059 4.772s1.854 3.676 1.854 5.866c0 1.617-.386 3.116-1.159 4.498-.772 1.382-1.943 2.581-3.514 3.598-1.57 1.017-3.527 1.812-5.87 2.386-2.343.573-5.085.86-8.225.86-5.355 0-10.659-.952-15.911-2.855s-10.118-4.758-14.598-8.565zm-42.7525-62.1709h32.2895v-20.5411h-90v20.5411h32.1316v91.4589h25.5789z" fill="#fff"/></svg>

<?xml version="1.0" encoding="UTF-8"?>
<svg width="256px" height="256px" viewBox="0 0 256 256" version="1.1" xmlns="http://www.w3.org/2000/svg" preserveAspectRatio="xMidYMid">
    <title>TypeScript</title>
    <g>
        <path d="M128,0 C198.692448,0 256,57.307552 256,128 C256,198.692448 198.692448,256 128,256 C57.307552,256 0,198.692448 0,128 C0,57.307552 57.307552,0 128,0 Z" fill="#3178C6"></path>
        <path d="M140.463,160.712 L140.463,185.742 C144.48,187.828 149.23,189.393 154.713,190.436 C160.197,191.479 165.977,192 172.053,192 C177.974,192 183.6,191.426 188.929,190.279 C194.258,189.132 198.931,187.242 202.947,184.608 C206.963,181.975 210.143,178.533 212.486,174.283 C214.829,170.033 216,164.78 216,158.522 C216,153.985 215.331,150.009 213.992,146.593 C212.653,143.178 210.722,140.14 208.199,137.481 C205.676,134.821 202.651,132.436 199.124,130.324 C195.597,128.212 191.619,126.217 187.191,124.34 C183.947,122.984 181.038,121.667 178.463,120.39 C175.889,119.112 173.701,117.809 171.898,116.479 C170.096,115.149 168.706,113.741 167.728,112.255 C166.749,110.769 166.26,109.087 166.26,107.21 C166.26,105.489 166.698,103.938 167.573,102.556 C168.449,101.174 169.684,99.9874 171.28,98.9966 C172.877,98.0058 174.833,97.2367 177.15,96.6891 C179.467,96.1416 182.042,95.8678 184.874,95.8678 C186.934,95.8678 189.109,96.0243 191.4,96.3372 C193.692,96.65 195.996,97.1324 198.313,97.7842 C200.63,98.4361 202.883,99.2574 205.071,100.248 C207.259,101.239 209.28,102.386 211.134,103.69 L211.134,80.3021 C207.375,78.842 203.269,77.7599 198.815,77.056 C194.361,76.352 189.251,76 183.484,76 C177.614,76 172.053,76.6388 166.801,77.9164 C161.549,79.194 156.928,81.1886 152.937,83.9002 C148.946,86.6118 145.793,90.0665 143.476,94.2643 C141.159,98.4621 140,103.481 140,109.322 C140,116.779 142.124,123.14 146.372,128.407 C150.62,133.674 157.069,138.133 165.72,141.783 C169.118,143.191 172.285,144.573 175.22,145.929 C178.154,147.284 180.69,148.692 182.827,150.152 C184.964,151.613 186.65,153.203 187.886,154.924 C189.122,156.645 189.74,158.6 189.74,160.79 C189.74,162.407 189.354,163.906 188.581,165.288 C187.809,166.67 186.638,167.869 185.067,168.886 C183.497,169.903 181.54,170.698 179.197,171.272 C176.854,171.845 174.112,172.132 170.972,172.132 C165.617,172.132 160.313,171.18 155.061,169.277 C149.809,167.374 144.943,164.519 140.463,160.712 L140.463,160.712 Z M97.7105,98.5411 L130,98.5411 L130,78 L40,78 L40,98.5411 L72.1316,98.5411 L72.1316,190 L97.7105,190 L97.7105,98.5411 Z" fill="#FFFFFF"></path>
    </g>
</svg>
